dist/assets/images/icons/sun.svg

<svg width="16" height="16" viewBox="0 0 16 16" fill="none" xmlns="http://www.w3.org/2000/svg">
<path d="M8.8 16H7.2V13.6H8.8V16ZM13.0912 14.2224L11.3944 12.5256L12.5256 11.3944L14.2232 13.092L13.0928 14.2224H13.0912ZM2.9088 14.2224L1.7768 13.0912L3.4728 11.3936L4.6048 12.5248L2.9088 14.2216V14.2224ZM8 12.0056C5.78798 12.0047 3.99541 10.211 3.996 7.99893C3.99659 5.78691 5.79011 3.99411 8.00213 3.9944C10.2142 3.99469 12.0072 5.78798 12.0072 8C12.005 10.2119 10.2119 12.0043 8 12.0056ZM8 5.5944C6.67163 5.59528 5.59541 6.6727 5.596 8.00107C5.59659 9.32943 6.67377 10.4059 8.00213 10.4056C9.3305 10.4053 10.4072 9.32837 10.4072 8C10.4059 6.67135 9.32865 5.59484 8 5.5944ZM16 8.8H13.6V7.2H16V8.8ZM2.4 8.8H0V7.2H2.4V8.8ZM12.5248 4.6064L11.3944 3.4744L13.0912 1.7768L14.2232 2.9088L12.5256 4.6056L12.5248 4.6064ZM3.4744 4.6064L1.7784 2.9096L2.9104 1.7784L4.6064 3.476L3.4752 4.6056L3.4744 4.6064ZM8.8 2.4H7.2V0H8.8V2.4Z" fill="#79655E"/>
</svg>

<svg width="16" height="16" fill="none" xmlns="http://www.w3.org/2000/svg"><path d="M8.8 16H7.2v-2.4h1.6V16zm4.291-1.778l-1.697-1.696 1.132-1.132 1.697 1.698-1.13 1.13h-.002zm-10.182 0l-1.132-1.13 1.696-1.698 1.132 1.13-1.696 1.698zM8 12.006a4.006 4.006 0 11.003-8.012A4.006 4.006 0 018 12.006zm0-6.412a2.406 2.406 0 10.003 4.812A2.406 2.406 0 008 5.594zM16 8.8h-2.4V7.2H16v1.6zm-13.6 0H0V7.2h2.4v1.6zm10.125-4.194l-1.13-1.132 1.696-1.697 1.132 1.132-1.697 1.697h-.001zm-9.05 0L1.777 2.91 2.91 1.778l1.696 1.698-1.13 1.13h-.002zM8.8 2.4H7.2V0h1.6v2.4z" fill="#79655E"/></svg>
